X:1
T:Young Charlotte
M:4/4
L:1/4
K:Bb
 B,| D D D C/2C/2| D F D B,/2B,/2| C D/2C/2 B, A,| B,2 z| F| G F G A|\
 B c F F| B D E G| F2 z| F| G F G/2G/2 A| B c F F| B D E G| F2 z| B,|\
 B, D D C| D F D B,| C D B, A,| B,2 z||
